X:1
T:Title
%%score 1 2
L:1/8
Q:1/4=105
M:4/4
K:A
V:1 treble nm="Grand Piano, Soprano"
V:2 bass nm="Choir Pad, Jesus Died for Me (Beers)"
V:1
 [CA][DB] [Ec]2 [Ec]2 [Ec]2 | [Ec]2 [DB]2 [DA]2 [DF]2- | [DF]2 [CE]2 [CA]2 [B,G]2 | %3
w: By~William~Batchelder~Bradbury * * * *|||
 [DB]2 [CA]4 [CA]2 | [CA][DB] [Ec]2 [Ec]2 [Ec]2 | [Ec]2 [DB]2 [DA]2 [DF]2- | %6
w: |||
 [DF]2 [CE]2 [CA]2 [Ec]2- | [Ec][DB] [CA]6 | [CA][DB] [Ec]2 [Ec]2 [Ec]2 | [Ed]2 [Ee]4 [Ed]2 | %10
w: ||||
 [Ec]2 [Ec]2 [Fd]2 [DB]2 | [DB]2 [DB]2 [Ec]2 [CA]2 | [CA][DB] [Ec]2 [Ec]2 [Ec]2 | %13
w: |||
 [Ed]2 [Ee]4 [Ed]2 | [Ec]2 [DB]2 [DB]2 [Ec]2- | [Ec][DB] [CA]6- | [CA]2 z2 z4 |] %17
w: ||||
V:2
 A,2 A,2 A,2 A,2 | A,2 [D,F,]2 [D,F,]2 [D,A,]2- | [D,A,]2 [E,A,]2 [E,A,]2 [E,B,]2 | %3
 [E,G,]2 [A,,A,]4 [A,,A,]2 | [A,,A,]2 [A,,A,]2 [A,,A,]2 [A,,A,]2 | %5
 [A,,A,]2 [D,F,]2 [D,F,]2 [D,A,]2- | [D,A,]2 [E,A,]2 [E,A,]2 [E,G,]2- | [E,G,][E,G,] [A,,A,]6 | %8
 A,2 A,2 A,2 A,2 | [A,B,]2 [A,C]4 [A,B,]2 | z8 | [E,G,]2 [E,G,]2 [E,G,]2 [A,,A,]2 | %12
 A,2 A,2 A,2 A,2 | [A,B,]2 [A,C]4 [A,B,]2 | A,2 [E,G,]2 [E,G,]2 [E,G,]2- | [E,G,][E,G,] [A,,A,]6- | %16
 [A,,A,]2 z2 z4 |] %17

